X: 25251
T: Man From Glengarry, The
R: reel
M: 4/4
K: Amajor
a|cA ~A2 ceef|fecA =GBBa|cA ~A2 ceef|fecB cAAa|
cA ~A2 ceef|fecA =GBBa|cA ~A2 ceAc|fecB cAA||
c|e2 ef fefa|fecA =GBBc|e2 ef fefa|fecB cAAc|
e2 ef fefa|fecA =GBBc|e2 ef ceaf|ecdB cAA||
a|fecB ~A2 cA|~A2 cA =GBBa|fecB ~A2 cA|cedB cAAa|
fecB ~A2 cA|cacA =GBBa|fecB ~A2 cA|cedB cAA||
e|aece fece|eAcA =GBBe|aece fece|cedB cAAe|
aece fece|eAcA =GBBe|aece a2 ad|cedB cAA||

